svg/color/hoodon.svg

<svg width="40" height="40" viewBox="0 0 40 40" fill="none" xmlns="http://www.w3.org/2000/svg">
<g clip-path="url(#clip0_819_3727)">
<path d="M20 0C31.0457 0 40 8.9543 40 20C40 31.0457 31.0457 40 20 40C8.95431 40 7.90517e-06 31.0457 0 20C6.58765e-07 8.95431 8.95431 1.97595e-06 20 0Z" fill="#DAD9D8"/>
<path d="M26 6C30.4183 6 34 9.58172 34 14V26C34 30.4183 30.4183 34 26 34H14C9.58172 34 6 30.4183 6 26V14C6 9.58172 9.58172 6 14 6H26Z" fill="#1C180D"/>
<path d="M12.7484 29.5001H13.168C13.244 29.5001 13.32 29.4621 13.3453 29.3988C16.5096 21.3427 19.9526 17.3527 22.1138 14.9635C22.2025 14.8621 22.1645 14.7853 22.0378 14.7853H18.1745C18.1052 14.7845 18.0368 14.8003 17.9748 14.8313C17.9128 14.8623 17.8592 14.9076 17.8182 14.9635L15.049 18.3946C14.6421 18.9028 14.5407 19.3731 14.5407 20.046V23.5531C13.6382 26.0817 13.0666 27.7972 12.647 29.3481C12.6217 29.4471 12.6597 29.5001 12.7492 29.5001M26.6873 11.0114C26.0904 10.3765 23.3964 10.3512 22.1511 10.8341C21.9261 10.9243 21.7162 11.0485 21.5288 11.2022C20.6055 11.991 19.7272 12.831 18.8981 13.7182C18.8094 13.8076 18.8474 13.8963 18.9749 13.8963H23.257C23.6505 13.8963 23.8793 14.1251 23.8793 14.5185V19.3477C23.8793 19.4744 23.9806 19.5124 24.0574 19.3984L26.6367 16.0306C27.0562 15.4844 27.1829 15.3197 27.2977 14.5573C27.4497 13.4387 27.3603 11.7231 26.6873 11.0114ZM21.1607 23.8207L22.9269 20.9105C22.96 20.8385 22.9773 20.7602 22.9776 20.6809V15.828C22.9776 15.7013 22.8889 15.6498 22.8002 15.7512C20.1442 18.712 18.0732 21.8249 16.1541 25.5734C16.1066 25.6684 16.1668 25.7516 16.2808 25.7136L20.2463 24.4944C20.6936 24.3566 20.9445 24.1769 21.1607 23.8207Z" fill="white"/>
</g>
<defs>
<clipPath id="clip0_819_3727">
<rect width="40" height="40" fill="white"/>
</clipPath>
</defs>
</svg>

<svg xmlns="http://www.w3.org/2000/svg" width="40" height="40" fill="none" viewBox="0 0 40 40"><g clip-path="url(#hoodon_svg-a)"><path fill="#DAD9D8" d="M20 0c11.046 0 20 8.954 20 20s-8.954 20-20 20S0 31.046 0 20 8.954 0 20 0"/><path fill="#1C180D" d="M26 6a8 8 0 0 1 8 8v12a8 8 0 0 1-8 8H14a8 8 0 0 1-8-8V14a8 8 0 0 1 8-8z"/><path fill="#fff" d="M12.748 29.5h.42c.076 0 .152-.038.177-.101 3.165-8.056 6.608-12.046 8.769-14.436.088-.1.05-.178-.076-.178h-3.864a.44.44 0 0 0-.356.178l-2.769 3.432c-.407.508-.508.978-.508 1.651v3.507c-.903 2.529-1.474 4.244-1.894 5.795-.025.1.013.152.102.152m13.938-18.489c-.597-.634-3.29-.66-4.536-.177q-.34.137-.622.368a33 33 0 0 0-2.63 2.516c-.09.09-.052.178.076.178h4.282c.393 0 .622.23.622.622v4.83c0 .126.102.164.178.05l2.58-3.367c.42-.547.546-.711.66-1.474.153-1.118.063-2.834-.61-3.546m-5.526 12.81 1.766-2.91a.6.6 0 0 0 .05-.23v-4.853c0-.127-.088-.178-.177-.077-2.656 2.961-4.727 6.074-6.646 9.822-.047.095.013.179.127.14l3.965-1.219c.448-.137.699-.317.915-.673"/></g><defs><clipPath id="hoodon_svg-a"><path fill="#fff" d="M0 0h40v40H0z"/></clipPath></defs></svg>
